src/assets/selectIcons/elmo_3.svg

<svg xmlns="http://www.w3.org/2000/svg" viewBox="0 0 512 512"><path d="M0 0h512v512H0z"/><path fill="#fff" d="M148.1 325c34.5-61.4-38.6-163.3-38.6-163.3s37.3 38 138.4 59.5l7.9 134.5 8-134.5c101.1-21.5 138.8-59.5 138.8-59.5S329.1 263.6 363.5 325l-86.1 62.7 108.3-47.6 62.9 25.9c-8 131.8-180.8 51.8-180.8 120.8h-24c0-69-172.37 11-180.77-120.8l62.87-25.9 108.4 47.6zM248.3 25.84l-1.7 85.86-11.4-65.26c-74 7.39-109.9 55.96-119.6 71.66l-7.6-.5c-3.5-.2-6.8 1.8-8.07 5-1.4 3.2-.7 7 1.77 9.4 0 0 50.8 48.9 152.5 67.1.5.1 1.1.1 1.6.1.6 0 1.1 0 1.6-.1C359.1 180.9 409.6 132 409.6 132c3-2.4 4-6.2 2-9.4-1-3.2-4-5.2-8-5l-7.5.5c-9.7-15.7-45.7-64.27-119.6-71.66l-11.4 65.26-1.7-85.86c-2.3-2.21-4.7-3.15-7.4-3.15-2.8 0-6.2 1.36-7.7 3.15zm94.9 88.86-4.3 28c17.2-5.9 31.4-15.6 39.1-21.7 2.2 3.1 3.8 5.8 6.3 10-20.4 14.5-63.3 39.5-128.5 51.4-65.1-11.9-108-36.9-128.5-51.4 1.9-3.3 3.9-6.9 6.3-10 7.8 6.1 21.9 15.8 39.1 21.7l-4.2-28 87.3 20.5z"/></svg>

<?xml version="1.0" encoding="UTF-8" standalone="no"?>
<!DOCTYPE svg PUBLIC "-//W3C//DTD SVG 1.1//EN" "http://www.w3.org/Graphics/SVG/1.1/DTD/svg11.dtd">
<svg width="100%" height="100%" viewBox="0 0 512 512" version="1.1" xmlns="http://www.w3.org/2000/svg" xmlns:xlink="http://www.w3.org/1999/xlink" xml:space="preserve" xmlns:serif="http://www.serif.com/" style="fill-rule:evenodd;clip-rule:evenodd;stroke-linejoin:round;stroke-miterlimit:2;">
    <rect x="0" y="0" width="512" height="512" style="fill-rule:nonzero;"/>
    <path d="M148.1,325C182.6,263.6 109.5,161.7 109.5,161.7C109.5,161.7 146.8,199.7 247.9,221.2L255.8,355.7L263.8,221.2C364.9,199.7 402.6,161.7 402.6,161.7C402.6,161.7 329.1,263.6 363.5,325L277.4,387.7L385.7,340.1L448.6,366C440.6,497.8 267.8,417.8 267.8,486.8L243.8,486.8C243.8,417.8 71.43,497.8 63.03,366L125.9,340.1L234.3,387.7L148.1,325ZM248.3,25.84L246.6,111.7L235.2,46.44C161.2,53.83 125.3,102.4 115.6,118.1L108,117.6C104.5,117.4 101.2,119.4 99.93,122.6C98.53,125.8 99.23,129.6 101.7,132C101.7,132 152.5,180.9 254.2,199.1C254.7,199.2 255.3,199.2 255.8,199.2C256.4,199.2 256.9,199.2 257.4,199.1C359.1,180.9 409.6,132 409.6,132C412.6,129.6 413.6,125.8 411.6,122.6C410.6,119.4 407.6,117.4 403.6,117.6L396.1,118.1C386.4,102.4 350.4,53.83 276.5,46.44L265.1,111.7L263.4,25.84C261.1,23.63 258.7,22.69 256,22.69C253.2,22.69 249.8,24.05 248.3,25.84ZM343.2,114.7L338.9,142.7C356.1,136.8 370.3,127.1 378,121C380.2,124.1 381.8,126.8 384.3,131C363.9,145.5 321,170.5 255.8,182.4C190.7,170.5 147.8,145.5 127.3,131C129.2,127.7 131.2,124.1 133.6,121C141.4,127.1 155.5,136.8 172.7,142.7L168.5,114.7L255.8,135.2L343.2,114.7Z" style="fill:rgb(137,137,137);fill-rule:nonzero;"/>
</svg>
